X: 292
T: Bring On The Sun/Chicken Reel
C:Steve Ryan
B: steve song book
B: max
B: ralph
B: steve set list
B: steve originals
M:2/4
L:1/8
Q: 1/4=60
K:D
V:1 
(=f|"D"f/)>d/A/>F/ D/>F/B/>F/|A/>F/B/>F/ A(=f|f/)>d/A/>F/ D/>F/B/>F/|"A7"A/dc/ d(=f|
"D"f/)>d/A/>F/ D/>F/B/>F/|A/>F/B/>F/ A(=f|f/)>d/A/>F/ D/>F/B/>F/|"A"A/dc/ "D"d2|
"D"f/af/ df/d/|"C"A/d/e/d/ f/d/e/d/|"D"f/af/ df/d/|"A"A/dc/ "D"d2|
"D"f/af/ df/d/|"C"A/d/e/d/ f/d/e/d/|"D"f/af/ df/d/|"A"A/dc/ "D"d2|
W: I see the clouds are drawing and the sun has gone away.
W: It fills me with foreboding cos I want the sun to stay
W: The sun it soaks right through me washing aches and pains away.
W: The rain it does as well, but it leaves me feeling grey.
W: 
W: CHORUS
W: Bring on the sun, let it drive away the cold and dampness.
W: Bring on the sun, drive away the rain.
W: Bring on the sun, let it fill my heart with gladness.
W: Bring on the sun, let it's joy into my day.
W: 
W: In the summer time I like to swim and walk and splash and sing.
W: But when the winter comes it brings a deadening within.
W: The cold it takes my fire, leaves me just a burning glow.
W: Till the sun it feeds the ashes and returns the vital flow.
W: 
W: CHORUS
W: 
W: In the winter time it's nice to snuggle warm inside your bed.
W: With a raging fire going and a roof above your head.
W: But when the spring it starts to warm and makes it good to be outside.
W: I feel my spirit rising, know it's good to be alive.
W: 
W: CHORUS
W: 
% abcbook-tune_id 62a2cbdd9d763c8245321bf6
% abcbook-link-0 https://www.youtube.com/watch?v=ND7vj-VQWM0
% abcbook-link-title-0 J O La Madeleine: Chicken Reel

% abcbook-boost 0
% abcbook-tablature 
% abcbook-transpose 5
% abcbook-lastupdated 1667574784561
% abcbook-soundfonts 
% abcbook-repeats 1
%%MIDI transpose     5
% Titles One title
% Transcriptions Only 1 transcription
% Movement Never repeats a note
% Mode major
% Key D
% Time_signature 2/4
% Has_accompaniment_chords Has chords

